src/assets/VeilederKvinne.svg

<?xml version="1.0" encoding="UTF-8"?>
<svg width="148px" height="148px" viewBox="0 0 148 148" version="1.1" xmlns="http://www.w3.org/2000/svg" xmlns:xlink="http://www.w3.org/1999/xlink">
    <!-- Generator: Sketch 54.1 (76490) - https://sketchapp.com -->
    <title>group-7-copy-8 (1)</title>
    <desc>Created with Sketch.</desc>
    <defs>
        <circle id="path-1" cx="74" cy="74" r="74"></circle>
        <path d="M34.3936765,78.1157059 C30.6969412,79.4575 24.4961765,82.3913824 19.8058824,86.8455294 C6.09411765,83.7941176 0,76.5432059 0,76.5432059 C0,76.5432059 12.6333235,64.2211176 12.6409412,42.6697059 L12.6409412,42.6468529 C12.6409412,17.4106765 26.2645588,0 48.7094118,0 C71.1575294,0 84.7822353,17.4117647 84.7822353,42.6468529 L84.8627647,42.6468529 C84.8627647,64.2135 97.5047941,76.5432059 97.5047941,76.5432059 C97.5047941,76.5432059 91.4117647,83.7941176 77.7,86.8411765 L77.6793235,86.8455294 C73.149,82.7232941 66.5771471,79.5445588 63.0022941,78.2005882 L63.0066471,78.1995 L62.8651765,76.6019706 L62.9413529,76.4692059 C69.6873235,72.1543529 74.9206471,64.8860294 77.4442647,56.1017941 C77.7533235,56.2737353 78.1026471,56.3705882 78.4715588,56.3705882 C79.7339118,56.3705882 80.7568529,55.2431765 80.7568529,53.8458824 L80.7568529,43.66 C80.7568529,42.4662059 80.0081471,41.4672059 79.0015294,41.2027647 L78.9982647,41.1614118 C47.1053529,44.7199412 35.6179412,22.8540294 34.6744412,22.8529412 C34.6744412,22.8529412 24.0826471,30.4705882 19.0212647,39.5279706 C19.0212647,39.5279706 18.2486176,41.2365 18.2464412,41.2952647 C17.3791176,41.6532941 16.761,42.5761176 16.761,43.6610882 L16.761,53.8469706 C16.761,55.2431765 17.7861176,56.3705882 19.0462941,56.3705882 C19.3259706,56.3705882 19.5936765,56.3161765 19.8407059,56.2149706 C22.3926176,65.0024706 27.6596765,72.2631765 34.4372059,76.5497353 L34.4622353,76.6019706 L34.3969412,78.1157059 L34.3936765,78.1157059 L34.3936765,78.1157059 Z" id="path-3"></path>
        <path d="M23.8573824,0.378705882 L23.8552059,0.256823529 C23.8552059,7.141 30.1375882,14.2830882 37.888,14.2830882 C45.5589706,14.2830882 51.7912941,7.28682353 51.9186176,0.467941176 C55.9342059,1.56705882 61.8988235,4.60214706 66.8600882,9.58735294 C71.8202647,14.5714706 75.776,22.0672353 75.776,27.8849412 L75.776,62.8455882 L0,62.8455882 L0,27.8849412 C0,22.0792059 3.87194118,14.5954118 8.74179412,9.61673529 C13.7716176,4.47482353 19.8657353,1.39838235 23.8573824,0.378705882 Z" id="path-5"></path>
    </defs>
    <g id="Page-1" stroke="none" stroke-width="1" fill="none" fill-rule="evenodd">
        <g id="group-7-copy-8-(1)">
            <g id="a-link" fill="#826BA1" fill-rule="nonzero">
                <circle id="a" cx="74" cy="74" r="74"></circle>
            </g>
            <g id="Clipped">
                <mask id="mask-2" fill="white">
                    <use xlink:href="#path-1"></use>
                </mask>
                <g id="a"></g>
                <g id="Group" mask="url(#mask-2)">
                    <g transform="translate(26.117647, 19.588235)">
                        <path d="M49.4907647,7.50882353 C65.7783824,7.50882353 79.1049118,22.3741176 80.586,41.3170294 C81.6502941,41.8328529 82.3794118,42.9874706 82.3794118,44.3140294 L82.3794118,54.4999118 C82.3794118,56.2356471 81.1279412,57.6786471 79.513,57.7798529 L79.3323529,57.7852941 C79.1527941,57.7852941 78.9765,57.7689706 78.8056471,57.7363235 C76.1938824,66.2191176 71.077,73.2589118 64.5203824,77.5672353 L64.8555588,81.3445 L64.8544706,81.4979412 L61.309,112.632353 L38.8282353,112.632353 L38.7346471,111.978324 L34.3893235,81.4446176 L34.5492941,77.6249118 C27.9589412,73.3274706 22.8126765,66.2746176 20.1845882,57.7711471 L20.0953529,57.7798529 L19.9147059,57.7852941 C18.2148824,57.7852941 16.8676471,56.2998529 16.8676471,54.4988235 L16.8676471,44.3129412 C16.8676471,43.1071765 17.4727059,42.0407059 18.3846471,41.4682941 C19.8058824,22.4535588 33.1585294,7.50882353 49.4907647,7.50882353 Z" id="Path" fill="#E7E5E2" fill-rule="nonzero"></path>
                        <g id="Group" stroke-width="1" fill="none" fill-rule="evenodd" transform="translate(35.911765, 41.352941)">
                            <path d="M2.479,7.61220588 C0.510382353,7.77 -0.0402647059,4.68267647 0.552823529,2.66617647 C0.663823529,2.28420588 1.31567647,0.544117647 2.46920588,0.544117647 C3.62273529,0.544117647 4.13094118,1.49523529 4.20167647,1.65847059 C5.04941176,3.62382353 4.63261765,7.43808824 2.479,7.61111765 M25.3123529,7.61220588 C27.2798824,7.77 27.8316176,4.68267647 27.2385294,2.66617647 C27.1264412,2.28420588 26.4745882,0.544117647 25.3210588,0.544117647 C24.1686176,0.544117647 23.6604118,1.49523529 23.5896765,1.65847059 C22.7408529,3.62382353 23.1576471,7.43808824 25.3112647,7.61111765" id="Shape" fill="#59514B" fill-rule="nonzero"></path>
                            <path d="M14.6258824,10.6538235 C15.8022647,10.4546765 16.6064706,10.5798235 16.8948529,10.9694118 C17.9809118,12.4417941 17.6337647,13.9990588 15.7685294,15.2777353 C14.7891176,15.9491765 13.4397059,16.1864118 12.7247353,15.8370882 C12.3754118,15.6673235 11.9673235,15.8414412 11.8127941,16.2255882 C11.6571765,16.6108235 11.8160588,17.0613529 12.1653824,17.2322059 C13.3461176,17.8078824 15.1612941,17.4890294 16.4998235,16.5716471 C19.0332353,14.8348235 19.6132647,12.2372059 17.9667647,10.0063235 C17.2702941,9.065 16.0373235,8.87238235 14.4147647,9.14661765 C14.0371471,9.21191176 13.7781471,9.60041176 13.8358235,10.0172059 C13.8945882,10.4329118 14.2471765,10.7180294 14.6247941,10.6549118 L14.6258824,10.6538235 Z M23.1380588,20.7711471 C23.0695,20.9169706 22.9106176,21.1944706 22.6559706,21.5601176 C22.1871822,22.2302022 21.6394934,22.8414653 21.0247059,23.3807353 C19.0647941,25.1066765 16.5128824,26.1045882 13.2655882,26.0131765 C10.0988235,25.9239412 7.55779412,24.9412647 5.56632353,23.3567941 C4.89026891,22.8223301 4.28019769,22.2093364 3.74897059,21.5307353 C3.54945959,21.2820791 3.36902429,21.0187018 3.20920588,20.7428529 C3.02202941,20.3946176 2.56279412,20.2509706 2.183,20.4218235 C1.80320588,20.5937647 1.6465,21.0149118 1.83367647,21.3631471 C1.94685294,21.5720882 2.16558824,21.9148824 2.50076471,22.3458235 C3.05032353,23.0531765 3.73373529,23.7594412 4.56188235,24.4178235 C6.81017647,26.2057941 9.68311765,27.3179706 13.2187941,27.417 C16.8992059,27.5203824 19.8428824,26.3690294 22.0879118,24.3927941 C22.7892493,23.7778282 23.4140349,23.080699 23.9487941,22.3164412 C24.2480588,21.8844118 24.4439412,21.5427059 24.5429706,21.3337647 C24.7127353,20.9779118 24.5353529,20.5643824 24.1479412,20.4087647 C23.7594412,20.2531471 23.3078235,20.4163824 23.1380588,20.7711471 L23.1380588,20.7711471 Z" id="Shape" fill="#59514B" fill-rule="nonzero"></path>
                        </g>
                        <g id="Group" stroke-width="1" fill="none" fill-rule="evenodd">
                            <g transform="translate(0.870588, 0.652941)">
                                <g id="e-link" fill="#F6B873" fill-rule="nonzero">
                                    <path d="M34.3936765,78.1157059 C30.6969412,79.4575 24.4961765,82.3913824 19.8058824,86.8455294 C6.09411765,83.7941176 0,76.5432059 0,76.5432059 C0,76.5432059 12.6333235,64.2211176 12.6409412,42.6697059 L12.6409412,42.6468529 C12.6409412,17.4106765 26.2645588,0 48.7094118,0 C71.1575294,0 84.7822353,17.4117647 84.7822353,42.6468529 L84.8627647,42.6468529 C84.8627647,64.2135 97.5047941,76.5432059 97.5047941,76.5432059 C97.5047941,76.5432059 91.4117647,83.7941176 77.7,86.8411765 L77.6793235,86.8455294 C73.149,82.7232941 66.5771471,79.5445588 63.0022941,78.2005882 L63.0066471,78.1995 L62.8651765,76.6019706 L62.9413529,76.4692059 C69.6873235,72.1543529 74.9206471,64.8860294 77.4442647,56.1017941 C77.7533235,56.2737353 78.1026471,56.3705882 78.4715588,56.3705882 C79.7339118,56.3705882 80.7568529,55.2431765 80.7568529,53.8458824 L80.7568529,43.66 C80.7568529,42.4662059 80.0081471,41.4672059 79.0015294,41.2027647 L78.9982647,41.1614118 C47.1053529,44.7199412 35.6179412,22.8540294 34.6744412,22.8529412 C34.6744412,22.8529412 24.0826471,30.4705882 19.0212647,39.5279706 C19.0212647,39.5279706 18.2486176,41.2365 18.2464412,41.2952647 C17.3791176,41.6532941 16.761,42.5761176 16.761,43.6610882 L16.761,53.8469706 C16.761,55.2431765 17.7861176,56.3705882 19.0462941,56.3705882 C19.3259706,56.3705882 19.5936765,56.3161765 19.8407059,56.2149706 C22.3926176,65.0024706 27.6596765,72.2631765 34.4372059,76.5497353 L34.4622353,76.6019706 L34.3969412,78.1157059 L34.3936765,78.1157059 L34.3936765,78.1157059 Z" id="e"></path>
                                </g>
                                <g id="Clipped">
                                    <mask id="mask-4" fill="white">
                                        <use xlink:href="#path-3"></use>
                                    </mask>
                                    <g id="e"></g>
                                    <g id="Group" mask="url(#mask-4)">
                                        <g transform="translate(-3.264706, -6.529412)"></g>
                                    </g>
                                </g>
                            </g>
                            <g transform="translate(11.970588, 77.727206)">
                                <g id="c-link" fill="#D8A25D" fill-rule="nonzero">
                                    <path d="M23.8573824,0.378705882 L23.8552059,0.256823529 C23.8552059,7.141 30.1375882,14.2830882 37.888,14.2830882 C45.5589706,14.2830882 51.7912941,7.28682353 51.9186176,0.467941176 C55.9342059,1.56705882 61.8988235,4.60214706 66.8600882,9.58735294 C71.8202647,14.5714706 75.776,22.0672353 75.776,27.8849412 L75.776,62.8455882 L0,62.8455882 L0,27.8849412 C0,22.0792059 3.87194118,14.5954118 8.74179412,9.61673529 C13.7716176,4.47482353 19.8657353,1.39838235 23.8573824,0.378705882 Z" id="c"></path>
                                </g>
                                <g id="Clipped">
                                    <mask id="mask-6" fill="white">
                                        <use xlink:href="#path-5"></use>
                                    </mask>
                                    <g id="c"></g>
                                    <g id="Group" mask="url(#mask-6)" fill="#453B43" fill-rule="nonzero">
                                        <g transform="translate(-50.058824, -40.264706)" id="Path">
                                            <polygon points="0 142.377088 176.069941 142.377088 176.069941 0 0 0"></polygon>
                                        </g>
                                    </g>
                                </g>
                            </g>
                        </g>
                    </g>
                </g>
            </g>
        </g>
    </g>
</svg>

<?xml version="1.0" encoding="UTF-8"?>
<svg version="1.1" viewBox="0 0 148 148" xmlns="http://www.w3.org/2000/svg" xmlns:xlink="http://www.w3.org/1999/xlink">
    <title>group-7-copy-8 (1)</title>
    <desc>Created with Sketch.</desc>
    <defs>
        <circle id="c" cx="74" cy="74" r="74"/>
        <path id="b" d="m34.394 78.116c-3.6967 1.3418-9.8975 4.2757-14.588 8.7298-13.712-3.0514-19.806-10.302-19.806-10.302s12.633-12.322 12.641-33.874v-0.022853c0-25.236 13.624-42.647 36.068-42.647 22.448 0 36.073 17.412 36.073 42.647h0.080529c0 21.567 12.642 33.896 12.642 33.896s-6.093 7.2509-19.805 10.298l-0.020676 0.0043529c-4.5303-4.1222-11.102-7.301-14.677-8.6449l0.004353-0.0010882-0.14147-1.5975 0.076176-0.13276c6.746-4.3149 11.979-11.583 14.503-20.367 0.30906 0.17194 0.65838 0.26879 1.0273 0.26879 1.2624 0 2.2853-1.1274 2.2853-2.5247v-10.186c0-1.1938-0.74871-2.1928-1.7553-2.4572l-0.0032647-0.041353c-31.893 3.5585-43.38-18.307-44.324-18.308 0 0-10.592 7.6176-15.653 16.675 0 0-0.77265 1.7085-0.77482 1.7673-0.86732 0.35803-1.4854 1.2809-1.4854 2.3658v10.186c0 1.3962 1.0251 2.5236 2.2853 2.5236 0.27968 0 0.54738-0.054412 0.79441-0.15562 2.5519 8.7875 7.819 16.048 14.596 20.335l0.025029 0.052235-0.065294 1.5137h-0.0032647z"/>
        <path id="a" d="m23.857 0.37871-0.0021765-0.12188c0 6.8842 6.2824 14.026 14.033 14.026 7.671 0 13.903-6.9963 14.031-13.815 4.0156 1.0991 9.9802 4.1342 14.941 9.1194 4.9602 4.9841 8.9159 12.48 8.9159 18.298v34.961h-75.776v-34.961c0-5.8057 3.8719-13.29 8.7418-18.268 5.0298-5.1419 11.124-8.2184 15.116-9.238z"/>
    </defs>
    <g fill="none" fill-rule="evenodd">
        <g fill="#826BA1" fill-rule="nonzero">
            <circle cx="74" cy="74" r="74"/>
        </g>
        <g id="Clipped">
            <mask id="f" fill="white">
                <use xlink:href="#c"/>
            </mask>
            <g id="Group" mask="url(#f)">
                <g transform="translate(26.118 19.588)">
                    <path id="i" d="m49.491 7.5088c16.288 0 29.614 14.865 31.095 33.808 1.0643 0.51582 1.7934 1.6704 1.7934 2.997v10.186c0 1.7357-1.2515 3.1787-2.8664 3.2799l-0.18065 0.0054412c-0.17956 0-0.35585-0.016324-0.52671-0.048971-2.6118 8.4828-7.7286 15.523-14.285 19.831l0.33518 3.7773-0.0010882 0.15344-3.5455 31.134h-22.481l-0.093588-0.65403-4.3453-30.534 0.15997-3.8197c-6.5904-4.2974-11.737-11.35-14.365-19.854l-0.089235 0.0087058-0.18065 0.0054412c-1.6998 0-3.0471-1.4854-3.0471-3.2865v-10.186c0-1.2058 0.60506-2.2722 1.517-2.8446 1.4212-19.015 14.774-33.959 31.106-33.959z" fill="#E7E5E2" fill-rule="nonzero"/>
                    <g id="Group" transform="translate(35.912 41.353)" fill="#59514B" fill-rule="nonzero">
                        <path id="g" d="m2.479 7.6122c-1.9686 0.15779-2.5193-2.9295-1.9262-4.946 0.111-0.38197 0.76285-2.1221 1.9164-2.1221s1.6617 0.95112 1.7325 1.1144c0.84774 1.9654 0.43094 5.7796-1.7227 5.9526m22.833 0.0010882c1.9675 0.15779 2.5193-2.9295 1.9262-4.946-0.11209-0.38197-0.76394-2.1221-1.9175-2.1221-1.1524 0-1.6606 0.95112-1.7314 1.1144-0.84882 1.9654-0.43203 5.7796 1.7216 5.9526"/>
                        <path d="m14.626 10.654c1.1764-0.19915 1.9806-0.074 2.269 0.31559 1.0861 1.4724 0.73891 3.0296-1.1263 4.3083-0.97941 0.67144-2.3288 0.90868-3.0438 0.55935-0.34932-0.16976-0.75741 0.004353-0.91194 0.3885-0.15562 0.38524 0.0032647 0.83576 0.35259 1.0066 1.1807 0.57568 2.9959 0.25682 4.3344-0.66056 2.5334-1.7368 3.1134-4.3344 1.4669-6.5653-0.69647-0.94132-1.9294-1.1339-3.552-0.85971-0.37762 0.065294-0.63662 0.45379-0.57894 0.87059 0.058765 0.41571 0.41135 0.70082 0.78897 0.63771l0.0010883-0.0010883zm8.5122 10.117c-0.068559 0.14582-0.22744 0.42332-0.48209 0.78897-0.46879 0.67008-1.0165 1.2813-1.6313 1.8206-1.9599 1.7259-4.5118 2.7239-7.7591 2.6324-3.1668-0.089235-5.7078-1.0719-7.6993-2.6564-0.67605-0.53446-1.2861-1.1475-1.8174-1.8261-0.19951-0.24866-0.37995-0.51203-0.53976-0.78788-0.18718-0.34824-0.64641-0.49188-1.0262-0.32103-0.37979 0.17194-0.5365 0.59309-0.34932 0.94132 0.11318 0.20894 0.33191 0.55174 0.66709 0.98268 0.54956 0.70735 1.233 1.4136 2.0611 2.072 2.2483 1.788 5.1212 2.9001 8.6569 2.9992 3.6804 0.10338 6.6241-1.048 8.8691-3.0242 0.70134-0.61497 1.3261-1.3121 1.8609-2.0764 0.29926-0.43203 0.49515-0.77374 0.59418-0.98268 0.16976-0.35585-0.0076177-0.76938-0.39503-0.925-0.3885-0.15562-0.84012 0.0076177-1.0099 0.36238z"/>
                    </g>
                    <g id="Group" fill="none" fill-rule="evenodd">
                        <g transform="translate(.87059 .65294)">
                            <g fill="#F6B873" fill-rule="nonzero">
                                <path d="m34.394 78.116c-3.6967 1.3418-9.8975 4.2757-14.588 8.7298-13.712-3.0514-19.806-10.302-19.806-10.302s12.633-12.322 12.641-33.874v-0.022853c0-25.236 13.624-42.647 36.068-42.647 22.448 0 36.073 17.412 36.073 42.647h0.080529c0 21.567 12.642 33.896 12.642 33.896s-6.093 7.2509-19.805 10.298l-0.020676 0.0043529c-4.5303-4.1222-11.102-7.301-14.677-8.6449l0.004353-0.0010882-0.14147-1.5975 0.076176-0.13276c6.746-4.3149 11.979-11.583 14.503-20.367 0.30906 0.17194 0.65838 0.26879 1.0273 0.26879 1.2624 0 2.2853-1.1274 2.2853-2.5247v-10.186c0-1.1938-0.74871-2.1928-1.7553-2.4572l-0.0032647-0.041353c-31.893 3.5585-43.38-18.307-44.324-18.308 0 0-10.592 7.6176-15.653 16.675 0 0-0.77265 1.7085-0.77482 1.7673-0.86732 0.35803-1.4854 1.2809-1.4854 2.3658v10.186c0 1.3962 1.0251 2.5236 2.2853 2.5236 0.27968 0 0.54738-0.054412 0.79441-0.15562 2.5519 8.7875 7.819 16.048 14.596 20.335l0.025029 0.052235-0.065294 1.5137h-0.0032647z"/>
                            </g>
                            <g id="h">
                                <mask id="e" fill="white">
                                    <use xlink:href="#b"/>
                                </mask>
                                <g id="j" mask="url(#e)"></g>
                            </g>
                        </g>
                        <g transform="translate(11.971 77.727)">
                            <g fill="#D8A25D" fill-rule="nonzero">
                                <path d="m23.857 0.37871-0.0021765-0.12188c0 6.8842 6.2824 14.026 14.033 14.026 7.671 0 13.903-6.9963 14.031-13.815 4.0156 1.0991 9.9802 4.1342 14.941 9.1194 4.9602 4.9841 8.9159 12.48 8.9159 18.298v34.961h-75.776v-34.961c0-5.8057 3.8719-13.29 8.7418-18.268 5.0298-5.1419 11.124-8.2184 15.116-9.238z"/>
                            </g>
                            <mask id="d" fill="white">
                                <use xlink:href="#a"/>
                            </mask>
                            <g fill="#453B43" fill-rule="nonzero" mask="url(#d)">
                                <g transform="translate(-50.059 -40.265)">
                                    <polygon points="0 142.38 176.07 142.38 176.07 0 0 0"/>
                                </g>
                            </g>
                        </g>
                    </g>
                </g>
            </g>
        </g>
    </g>
</svg>
